brandFactory_export/3.Masa/Ecológico_3Masa.svg

<?xml version="1.0" encoding="UTF-8"?>
<svg width="24px" height="24px" viewBox="0 0 24 24" version="1.1" xmlns="http://www.w3.org/2000/svg" xmlns:xlink="http://www.w3.org/1999/xlink">
    <title>3.Masa/Ecológico_3Masa</title>
    <g id="Symbols" stroke="none" stroke-width="1" fill="none" fill-rule="evenodd">
        <g id="3.Masa/Ecológico_3Masa" fill="#5CB615" fill-rule="nonzero">
            <path d="M5.46890756,1.01344538 C7.1697479,1.01344538 8.49747899,1.46722689 9.41848739,2.36134454 C10.3663866,3.28571429 10.8504202,4.65042017 10.8504202,6.41848739 C10.8504202,7.79663866 10.5512605,8.92605042 9.97310924,9.79327731 L9.97310924,9.79327731 L9.86218487,9.58151261 C8.78319328,7.57815126 7.27394958,6.19663866 5.37815126,5.47058824 C5.04201681,5.34285714 4.66890756,5.51092437 4.54117647,5.84369748 C4.41344538,6.17983193 4.5815126,6.55294118 4.91428571,6.68067227 C6.51092437,7.28907563 7.79159664,8.47226891 8.72268908,10.1966387 C8.80336134,10.3445378 8.88067227,10.4957983 8.95798319,10.6470588 C8.9815126,10.697479 9.00840336,10.7445378 9.04537815,10.7848739 L9.04080672,10.7784454 L9.97310924,9.79327731 C11.0688456,12.0336046 11.5672288,14.7489163 11.8148278,17.0031414 C12.2750111,15.4047955 12.8302362,13.9651784 13.4678625,12.7666699 C13.0048534,11.9437194 12.7663866,10.9087588 12.7663866,9.68235294 C12.7663866,7.91428571 13.2470588,6.54957983 14.1983193,5.62521008 C15.1193277,4.73109244 16.4470588,4.27731092 18.1478992,4.27731092 L18.1478992,4.27731092 L21.6336134,4.27731092 C22.7193277,4.27731092 23.6,5.15798319 23.6033613,6.24369748 L23.6033613,6.24369748 L23.6033613,9.7092437 C23.6033613,13.1747899 21.6773109,15.0840336 18.1815126,15.0840336 C16.5378151,15.0840336 15.2739496,14.687395 14.3596639,13.8705882 C14.4134454,13.8201681 14.4268908,13.7294118 14.4638655,13.6588235 C15.7579832,11.0840336 17.3747899,9.60504202 19.2705882,9.25882353 C19.6235294,9.19495798 19.8554622,8.85882353 19.7915966,8.50588235 C19.7277311,8.15294118 19.3915966,7.9210084 19.0386555,7.98487395 C16.8033613,8.39159664 14.9310924,10.0016807 13.4689076,12.7680672 L13.4698067,12.7654454 L14.3596639,13.8705882 C13.3962014,15.8575213 12.6575769,18.3834044 12.1634665,21.3859304 C12.1631321,21.6847272 11.953526,21.9510075 11.6504202,22.0151261 C11.3008403,22.0890756 10.9579832,21.8638655 10.8840336,21.5142857 C10.8806723,21.4941176 10.8773109,21.4773109 10.8739496,21.4571429 C10.810084,21.0605042 10.7764706,20.4722689 10.7327731,19.7260504 C10.6051274,17.4821732 10.4137015,13.7545673 9.04141081,10.7874656 C8.14773194,11.4682551 6.93898621,11.8201681 5.43865546,11.8201681 C1.94285714,11.8201681 0.0168067226,9.91092437 0.0168067226,6.44537815 L0.0168067226,6.44537815 L0.0168067226,2.97983193 C0.0168067226,1.89411765 0.900840336,1.01344538 1.98655462,1.01344538 L1.98655462,1.01344538 Z" id="Ecológico_3Masa"></path>
        </g>
    </g>
</svg>

<svg width="24" height="24" viewBox="0 0 24 24" xmlns="http://www.w3.org/2000/svg"><path d="M5.469 1.013c1.7 0 3.028.454 3.95 1.348.947.925 1.431 2.29 1.431 4.057 0 1.379-.299 2.508-.877 3.375l-.11-.211c-1.08-2.004-2.59-3.385-4.485-4.111a.649.649 0 00-.464 1.21c1.597.608 2.878 1.791 3.809 3.516.08.148.158.299.235.45.024.05.05.098.087.138l-.004-.007.932-.985c1.096 2.24 1.594 4.956 1.842 7.21.46-1.598 1.015-3.038 1.653-4.236-.463-.823-.702-1.858-.702-3.085 0-1.768.481-3.132 1.432-4.057.921-.894 2.25-1.348 3.95-1.348h3.486c1.085 0 1.966.881 1.97 1.967v3.465c0 3.466-1.927 5.375-5.422 5.375-1.644 0-2.908-.397-3.822-1.213.053-.05.067-.142.104-.212 1.294-2.575 2.91-4.054 4.807-4.4a.646.646 0 00.52-.753.646.646 0 00-.752-.521c-2.236.407-4.108 2.017-5.57 4.783v-.003l.89 1.106c-.963 1.987-1.701 4.512-2.196 7.515a.645.645 0 01-1.279.128l-.01-.057c-.064-.396-.098-.985-.141-1.73-.128-2.245-.32-5.972-1.692-8.94-.893.681-2.102 1.033-3.602 1.033-3.496 0-5.422-1.91-5.422-5.375V2.98a1.97 1.97 0 011.97-1.967z" fill="#5CB615" fill-rule="nonzero"/></svg>
